papirus/48x48/apps/vym.svg

<?xml version="1.0" encoding="UTF-8" standalone="no"?>
<!-- Created with Inkscape (http://www.inkscape.org/) -->

<svg
   xmlns:dc="http://purl.org/dc/elements/1.1/"
   xmlns:cc="http://creativecommons.org/ns#"
   xmlns:rdf="http://www.w3.org/1999/02/22-rdf-syntax-ns#"
   xmlns:svg="http://www.w3.org/2000/svg"
   xmlns="http://www.w3.org/2000/svg"
   xmlns:sodipodi="http://sodipodi.sourceforge.net/DTD/sodipodi-0.dtd"
   xmlns:inkscape="http://www.inkscape.org/namespaces/inkscape"
   id="svg2817"
   height="48"
   width="48"
   version="1.0"
   inkscape:version="0.91 r13725"
   sodipodi:docname="vym48.svg">
  <defs
     id="defs18" />
  <sodipodi:namedview
     pagecolor="#ffffff"
     bordercolor="#666666"
     borderopacity="1"
     objecttolerance="10"
     gridtolerance="10"
     guidetolerance="10"
     inkscape:pageopacity="0"
     inkscape:pageshadow="2"
     inkscape:window-width="1600"
     inkscape:window-height="849"
     id="namedview16"
     showgrid="false"
     inkscape:zoom="9.95"
     inkscape:cx="31.048041"
     inkscape:cy="17.332487"
     inkscape:window-x="0"
     inkscape:window-y="0"
     inkscape:window-maximized="1"
     inkscape:current-layer="svg2817"
     inkscape:snap-grids="true"
     inkscape:snap-page="true">
    <inkscape:grid
       type="xygrid"
       id="grid4150" />
  </sodipodi:namedview>
  <metadata
     id="metadata57">
    <rdf:RDF>
      <cc:Work
         rdf:about="">
        <dc:format>image/svg+xml</dc:format>
        <dc:type
           rdf:resource="http://purl.org/dc/dcmitype/StillImage" />
        <dc:title></dc:title>
      </cc:Work>
    </rdf:RDF>
  </metadata>
  <g
     id="layer7"
     display="none"
     transform="translate(-52.273 -2.186)">
    <rect
       id="rect4169"
       display="inline"
       rx="9"
       ry="9"
       height="44"
       width="44"
       y="2"
       x="2"
       fill="#abe1ad" />
  </g>
  <rect
     style="fill:#4d4d4d;fill-opacity:1"
     id="rect4203"
     ry="20"
     rx="20"
     transform="matrix(0,-1,-1,0,0,0)"
     height="40"
     width="40"
     y="-44"
     x="-44" />
  <path
     style="opacity:0.2;fill:#000000;fill-opacity:1"
     d="M 28.335938 12.978516 C 28.181468 12.978516 28.031913 12.997946 27.878906 13.003906 A 11 11 0 0 0 27.017578 13.052734 A 11 11 0 0 0 17 24 A 11 11 0 0 0 17.019531 24.541016 C 17.01925 24.577076 17.015625 24.612296 17.015625 24.648438 L 17.015625 26.207031 L 17 27 L 14.240234 31.115234 C 13.639844 32.259731 14.207864 32.971323 15.496094 32.988281 L 17.015625 33.007812 L 17.015625 33.011719 L 17.015625 35.199219 L 17.015625 37.507812 C 17.015625 38.852435 18.11787 39.958984 19.46875 39.958984 L 22 40 L 22 43.900391 C 22.657678 43.96512 23.324747 44 24 44 C 28.516103 44 32.659319 42.50016 36 39.994141 L 36 33 C 36 32.487165 35.985484 32.01598 35.958984 31.574219 A 11 11 0 0 0 39 24 A 11 11 0 0 0 28.804688 13.041016 C 28.640259 13.001556 28.482216 12.978516 28.335938 12.978516 z "
     id="path4179" />
  <path
     d="M 28.335938 11.978516 C 28.181468 11.978516 28.031913 11.99795 27.878906 12.003906 A 11 11 0 0 0 27.017578 12.052734 A 11 11 0 0 0 17 23 A 11 11 0 0 0 17.019531 23.541016 C 17.01925 23.577079 17.015625 23.612295 17.015625 23.648438 L 17.015625 25.207031 L 17 26 L 14.240234 30.115234 C 13.639844 31.259731 14.207864 31.971323 15.496094 31.988281 L 17.015625 32.007812 L 17.015625 32.011719 L 17.015625 34.199219 L 17.015625 36.507812 C 17.015625 37.852435 18.11787 38.958984 19.46875 38.958984 L 22 39 L 22 43.900391 C 22.657678 43.96512 23.324747 44 24 44 C 28.516103 44 32.659319 42.50016 36 39.994141 L 36 32 C 36 31.487165 35.985484 31.01598 35.958984 30.574219 A 11 11 0 0 0 39 23 A 11 11 0 0 0 28.804688 12.041016 C 28.64026 12.001553 28.482217 11.978516 28.335938 11.978516 z "
     id="path4171"
     style="fill:#6084ff;fill-opacity:1" />
  <path
     inkscape:connector-curvature="0"
     id="rect3436-2"
     d="M 24,4 C 12.92,4 4,12.92 4,24 4,24.168 3.996,24.333 4,24.5 4.2644,13.654 13.088,5 24,5 34.912,5 43.736,13.654 44,24.5 44.004,24.333 44,24.168 44,24 44,12.92 35.08,4 24,4 Z"
     style="opacity:0.1;fill:#ffffff" />
  <path
     style="opacity:0.3"
     inkscape:connector-curvature="0"
     id="rect4218"
     d="M 4.0117,23.5 C 4.0076,23.667 4,23.832 4,24 4,35.08 12.92,44 24,44 35.08,44 44,35.08 44,24 44,23.832 43.992,23.667 43.988,23.5 43.724,34.346 34.912,43 24,43 13.088,43 4.276,34.346 4.012,23.5 Z" />
  <g
     id="g4173"
     style="opacity:0.2;fill:#000000;fill-opacity:1"
     transform="translate(0,1)">
    <path
       style="opacity:1;fill:#000000;fill-opacity:1;stroke:none;stroke-width:4;stroke-linecap:round;stroke-linejoin:round;stroke-miterlimit:4;stroke-dasharray:none;stroke-opacity:1"
       d="m 28,17 a 6,6 0 0 0 -6,6 6,6 0 0 0 6,6 6,6 0 0 0 6,-6 6,6 0 0 0 -6,-6 z m 0,2 a 4,4 0 0 1 4,4 4,4 0 0 1 -4,4 4,4 0 0 1 -4,-4 4,4 0 0 1 4,-4 z"
       id="path4175"
       inkscape:connector-curvature="0" />
    <circle
       style="opacity:1;fill:#000000;fill-opacity:1;stroke:none;stroke-width:4;stroke-linecap:round;stroke-linejoin:round;stroke-miterlimit:4;stroke-dasharray:none;stroke-opacity:1"
       id="circle4177"
       cx="28"
       cy="23"
       r="2" />
  </g>
  <g
     id="g4169">
    <path
       id="path4155"
       d="M 28 17 A 6 6 0 0 0 22 23 A 6 6 0 0 0 28 29 A 6 6 0 0 0 34 23 A 6 6 0 0 0 28 17 z M 28 19 A 4 4 0 0 1 32 23 A 4 4 0 0 1 28 27 A 4 4 0 0 1 24 23 A 4 4 0 0 1 28 19 z "
       style="opacity:1;fill:#ffffff;fill-opacity:1;stroke:none;stroke-width:4;stroke-linecap:round;stroke-linejoin:round;stroke-miterlimit:4;stroke-dasharray:none;stroke-opacity:1" />
    <circle
       r="2"
       cy="23"
       cx="28"
       id="path4167"
       style="opacity:1;fill:#ffffff;fill-opacity:1;stroke:none;stroke-width:4;stroke-linecap:round;stroke-linejoin:round;stroke-miterlimit:4;stroke-dasharray:none;stroke-opacity:1" />
  </g>
</svg>

<?xml version="1.0" encoding="UTF-8" standalone="no"?>
<svg id="svg2817" xmlns:rdf="http://www.w3.org/1999/02/22-rdf-syntax-ns#" xmlns="http://www.w3.org/2000/svg" height="48" width="48" version="1.0" xmlns:cc="http://creativecommons.org/ns#" xmlns:dc="http://purl.org/dc/elements/1.1/">
 <metadata id="metadata57">
  <rdf:RDF>
   <cc:Work rdf:about="">
    <dc:format>image/svg+xml</dc:format>
    <dc:type rdf:resource="http://purl.org/dc/dcmitype/StillImage"/>
    <dc:title/>
   </cc:Work>
  </rdf:RDF>
 </metadata>
 <g id="layer7" transform="translate(-52.273 -2.186)" display="none">
  <rect id="rect4169" rx="9" ry="9" height="44" width="44" y="2" x="2" display="inline" fill="#abe1ad"/>
 </g>
 <rect id="rect4203" ry="20" rx="20" transform="matrix(0,-1,-1,0,0,0)" height="40" width="40" y="-44" x="-44" fill="#4d4d4d"/>
 <path id="path4179" opacity=".2" d="m28.336 12.979c-0.155 0-0.304 0.019-0.457 0.025a11 11 0 0 0 -0.861 0.049 11 11 0 0 0 -10.018 10.947 11 11 0 0 0 0.02 0.541c-0.001 0.036-0.004 0.071-0.004 0.107v1.559l-0.016 0.793-2.76 4.115c-0.6 1.145-0.032 1.856 1.256 1.873l1.52 0.02v0.004 2.187 2.309c0 1.344 1.102 2.451 2.453 2.451l2.531 0.041v3.9c0.658 0.065 1.325 0.1 2 0.1 4.516 0 8.659-1.5 12-4.006v-6.994c0-0.513-0.015-0.984-0.041-1.426a11 11 0 0 0 3.041 -7.574 11 11 0 0 0 -10.195 -10.959c-0.165-0.039-0.323-0.062-0.469-0.062z"/>
 <path id="path4171" fill="#6084ff" d="m28.336 11.979c-0.155 0-0.304 0.019-0.457 0.025a11 11 0 0 0 -0.861 0.049 11 11 0 0 0 -10.018 10.947 11 11 0 0 0 0.02 0.541c-0.001 0.036-0.004 0.071-0.004 0.107v1.559l-0.016 0.793-2.76 4.115c-0.6 1.145-0.032 1.856 1.256 1.873l1.52 0.02v0.004 2.187 2.309c0 1.344 1.102 2.451 2.453 2.451l2.531 0.041v4.9c0.658 0.065 1.325 0.1 2 0.1 4.516 0 8.659-1.5 12-4.006v-7.994c0-0.513-0.015-0.984-0.041-1.426a11 11 0 0 0 3.041 -7.574 11 11 0 0 0 -10.195 -10.959c-0.165-0.039-0.323-0.062-0.469-0.062z"/>
 <path id="rect3436-2" opacity=".1" fill="#fff" d="m24 4c-11.08 0-20 8.92-20 20 0 0.168-0.004 0.333 0 0.5 0.2644-10.846 9.088-19.5 20-19.5s19.736 8.654 20 19.5c0.004-0.167 0-0.332 0-0.5 0-11.08-8.92-20-20-20z"/>
 <path id="rect4218" opacity=".2" d="m4.0117 24.5c-0.0041 0.167-0.0117 0.332-0.0117 0.5 0 11.08 8.92 20 20 20s20-8.92 20-20c0-0.168-0.008-0.333-0.012-0.5-0.264 10.846-9.076 19.5-19.988 19.5s-19.724-8.654-19.988-19.5z"/>
 <g id="g4173" opacity=".2" transform="translate(0,1)">
  <path id="path4175" opacity="1" d="m28 17a6 6 0 0 0 -6 6 6 6 0 0 0 6 6 6 6 0 0 0 6 -6 6 6 0 0 0 -6 -6zm0 2a4 4 0 0 1 4 4 4 4 0 0 1 -4 4 4 4 0 0 1 -4 -4 4 4 0 0 1 4 -4z"/>
  <circle id="circle4177" opacity="1" cy="23" cx="28" r="2"/>
 </g>
 <g id="g4169" fill="#fff">
  <path id="path4155" d="m28 17a6 6 0 0 0 -6 6 6 6 0 0 0 6 6 6 6 0 0 0 6 -6 6 6 0 0 0 -6 -6zm0 2a4 4 0 0 1 4 4 4 4 0 0 1 -4 4 4 4 0 0 1 -4 -4 4 4 0 0 1 4 -4z"/>
  <circle id="path4167" cx="28" cy="23" r="2"/>
 </g>
</svg>
